dist/img/ic-solution-list-bullet.svg

<svg width="18" height="18" viewBox="0 0 18 18" fill="none" xmlns="http://www.w3.org/2000/svg">
<path d="M10.3751 6.38447L11.6608 7.67017C12.0598 8.06918 12.2371 8.55687 12.2371 9.04455C12.2371 9.57657 12.0154 10.0199 11.6164 10.4189L10.3751 11.6603C10.0204 12.015 9.57703 12.1923 9.04501 12.1923C8.513 12.1923 8.06966 12.015 7.67064 11.616L6.38494 10.3303C6.03026 9.97558 5.85293 9.53223 5.80859 8.95588C5.80859 8.42386 5.98593 7.98051 6.34061 7.62583L7.58198 6.38447C7.93665 6.02979 8.42433 5.80811 8.95635 5.80811C9.53269 5.85244 9.97604 6.02979 10.3751 6.38447Z" fill="#E78238"/>
<path d="M11.2619 15.3837C10.8629 14.9847 10.6855 14.5413 10.6855 13.9649C10.6855 13.3886 10.8629 12.9009 11.2619 12.5462L12.5033 11.3049C12.9023 10.9058 13.3456 10.7285 13.922 10.7285C14.4983 10.7285 14.986 10.9058 15.3407 11.3049L18.0008 13.9649L17.1584 14.8073L14.4983 12.1472C14.3653 12.0142 14.188 11.9256 13.9663 11.9256C13.7003 11.9256 13.523 12.0142 13.39 12.1472L12.1486 13.3886C12.0156 13.5216 11.9269 13.6989 11.9269 13.9206C11.9269 14.1423 12.0156 14.3196 12.1486 14.4526L14.8087 17.1127L13.922 17.9994L11.2619 15.3837Z" fill="#E78238"/>
<path d="M4.07878 7.31533C3.50243 7.31533 3.01475 7.138 2.66008 6.73898L0 4.0789L0.842354 3.23654L3.50243 5.89663C3.63543 6.02963 3.81278 6.1183 4.03445 6.1183C4.30046 6.1183 4.47779 6.02963 4.61079 5.89663L5.85216 4.65524C5.98517 4.52224 6.07384 4.34491 6.07384 4.12324C6.07384 3.90156 5.98517 3.72422 5.85216 3.59121L3.19209 0.931129L4.07878 0.0444336L6.73886 2.70452C7.13787 3.10353 7.31521 3.54688 7.31521 4.12324C7.31521 4.69959 7.13787 5.18726 6.73886 5.54194L5.49749 6.78332C5.09847 7.138 4.6108 7.31533 4.07878 7.31533Z" fill="#E78238"/>
<path d="M13.9212 7.31524C13.3449 7.31524 12.8572 7.1379 12.5025 6.73889L11.2612 5.49752C10.8621 5.09851 10.6848 4.65515 10.6848 4.0788C10.6848 3.50245 10.8621 3.01476 11.2612 2.66009L13.9212 0L14.7636 0.842371L12.1035 3.50246C11.9705 3.63546 11.8818 3.81279 11.8818 4.03447C11.8818 4.25614 11.9705 4.43349 12.1035 4.61083L13.3449 5.80786C13.4779 5.94086 13.6552 6.02953 13.8769 6.02953C14.0986 6.02953 14.2759 5.94086 14.4089 5.80786L17.069 3.14777L17.9557 4.03447L15.2956 6.69455C14.9409 7.1379 14.4532 7.31524 13.9212 7.31524Z" fill="#E78238"/>
<path d="M3.19209 17.1574L5.85216 14.4974C5.98517 14.3644 6.07384 14.187 6.07384 13.9653C6.07384 13.7437 5.98517 13.5663 5.85216 13.389L4.61079 12.1476C4.47779 12.0146 4.30045 11.926 4.07878 11.926C3.85711 11.926 3.67977 12.0146 3.54677 12.1476L0.886692 14.8077L0 13.921L2.66008 11.2609C3.05909 10.8619 3.50243 10.6846 4.07878 10.6846C4.65513 10.6846 5.14281 10.8619 5.49749 11.2609L6.73886 12.5023C7.13787 12.9013 7.31521 13.3447 7.31521 13.921C7.31521 14.4974 7.13787 14.985 6.73886 15.3397L4.07878 17.9998L3.19209 17.1574Z" fill="#E78238"/>
</svg>

<svg width="18" height="18" viewBox="0 0 18 18" fill="none" xmlns="http://www.w3.org/2000/svg"><path d="M10.375 6.384l1.286 1.286c.399.4.576.887.576 1.375 0 .532-.222.975-.62 1.374l-1.242 1.241c-.355.355-.798.532-1.33.532s-.975-.177-1.374-.576L6.385 10.33c-.355-.354-.532-.798-.576-1.374 0-.532.177-.975.532-1.33l1.241-1.242a1.945 1.945 0 011.374-.576c.577.044 1.02.222 1.42.576zm.887 9c-.4-.4-.577-.843-.577-1.42 0-.575.178-1.063.577-1.418l1.241-1.241c.4-.4.843-.576 1.419-.576.576 0 1.064.177 1.419.576l2.66 2.66-.843.842-2.66-2.66a.734.734 0 00-.532-.221c-.266 0-.443.088-.576.221l-1.241 1.242a.734.734 0 00-.222.532c0 .221.089.399.222.532l2.66 2.66-.887.886-2.66-2.615zM4.079 7.315c-.577 0-1.064-.177-1.419-.576L0 4.079l.842-.842 2.66 2.66c.133.133.31.221.532.221.266 0 .444-.088.577-.221l1.241-1.242a.734.734 0 00.222-.532.734.734 0 00-.222-.532L3.192.931 4.08.044l2.66 2.66c.399.4.576.843.576 1.42 0 .576-.177 1.063-.576 1.418L5.497 6.783a2.091 2.091 0 01-1.418.532zm9.842 0c-.576 0-1.064-.177-1.418-.576L11.26 5.498c-.399-.4-.576-.843-.576-1.42 0-.576.177-1.063.576-1.418L13.921 0l.843.842-2.66 2.66a.734.734 0 00-.222.532c0 .222.088.4.222.577l1.24 1.197a.738.738 0 00.533.222.734.734 0 00.532-.222l2.66-2.66.887.886-2.66 2.66c-.355.444-.843.621-1.375.621zM3.192 17.157l2.66-2.66a.734.734 0 00.222-.532c0-.221-.089-.399-.222-.576l-1.241-1.241a.734.734 0 00-.532-.222.734.734 0 00-.532.222l-2.66 2.66L0 13.92l2.66-2.66c.4-.4.842-.576 1.419-.576.576 0 1.064.177 1.418.576l1.242 1.241c.399.4.576.843.576 1.419 0 .576-.177 1.064-.576 1.419L4.079 18l-.887-.843z" fill="#E78238"/></svg>
